www/assets/icons/transform.svg

<svg xmlns="http://www.w3.org/2000/svg" width="24" height="24" viewBox="0 0 24 24" fill='currentColor'><path d="M22 18v-2H8V4h2L7 1 4 4h2v2H2v2h4v8c0 1.1.9 2 2 2h8v2h-2l3 3 3-3h-2v-2zM10 8h6v6h2V8c0-1.1-.9-2-2-2h-6z"/></svg>

<svg width="24" height="24" viewBox="0 0 24 24" xmlns="http://www.w3.org/2000/svg" fill='currentColor'><path d="M22 18V16H8V4H10L7 1L4 4H6V6H2V8H6V16C6 17.1 6.9 18 8 18H16V20H14L17 23L20 20H18V18H22ZM10 8H16V14H18V8C18 6.9 17.1 6 16 6H10V8Z"/></svg>
